icons/file/icon_account-main_xxl_white.svg

<svg width="48" height="48" viewBox="0 0 48 48" xmlns="http://www.w3.org/2000/svg"><g fill="none" fill-rule="evenodd"><g><path d="M0 0h48v48H0z"/><path fill="#FFF" opacity=".35" d="M13 21h20v4H13zM13 13h12v4H13z"/><path d="M37.5 46h-28C7.6 46 6 44.4 6 42.5v-37C6 3.6 7.6 2 9.5 2h21.2L41 12.3v30.2c0 1.9-1.6 3.5-3.5 3.5zM9.5 3C8.1 3 7 4.1 7 5.5v37C7 43.9 8.1 45 9.5 45h28c1.4 0 2.5-1.1 2.5-2.5V12.7L30.3 3H9.5z" fill="#FFF"/><circle fill="#FFF" opacity=".3" cx="16.5" cy="34.5" r="3.5"/></g></g></svg>

<?xml version="1.0" encoding="UTF-8"?>
<svg width="48px" height="48px" viewBox="0 0 48 48" version="1.1" xmlns="http://www.w3.org/2000/svg" xmlns:xlink="http://www.w3.org/1999/xlink">
    <!-- Generator: Sketch 48.2 (47327) - http://www.bohemiancoding.com/sketch -->
    <title>icon_account-main_xxl_white</title>
    <desc>Created with Sketch.</desc>
    <defs></defs>
    <g id="mobile" stroke="none" stroke-width="1" fill="none" fill-rule="evenodd" transform="translate(-204.000000, -153.000000)">
        <g id="Headings" transform="translate(64.000000, 77.000000)"></g>
        <g id="icon_tool_account__xxl__white" transform="translate(204.000000, 153.000000)">
            <g id="ungroup">
                <rect id="Rectangle-path" x="0" y="0" width="48" height="48"></rect>
                <rect id="Rectangle-path" fill="#FFFFFF" opacity="0.35" x="13" y="21" width="20" height="4"></rect>
                <rect id="Rectangle-path" fill="#FFFFFF" opacity="0.35" x="13" y="13" width="12" height="4"></rect>
                <path d="M37.5,46 L9.5,46 C7.6,46 6,44.4 6,42.5 L6,5.5 C6,3.6 7.6,2 9.5,2 L30.7,2 L41,12.3 L41,42.5 C41,44.4 39.4,46 37.5,46 L37.5,46 Z M9.5,3 C8.1,3 7,4.1 7,5.5 L7,42.5 C7,43.9 8.1,45 9.5,45 L37.5,45 C38.9,45 40,43.9 40,42.5 L40,12.7 L30.3,3 L9.5,3 L9.5,3 Z" id="Shape" fill="#FFFFFF"></path>
                <circle id="Oval" fill="#FFFFFF" opacity="0.3" cx="16.5" cy="34.5" r="3.5"></circle>
                <g id="Group" opacity="0.3"></g>
            </g>
        </g>
    </g>
</svg>
